X:372
T:Keep the Country Bonny Lassie
R:Reel
B:The Athole Collection
M:C|
L:1/8
K:A
f|eAcA Bcdf|eAcA eAcA|dfce Bcdf|ecac e2e:|
g|aece Bcdf|aece aece|aece Bcdf|ecac e2 eg|aece Bcdf|
aece aece|dfce Bcdf|ecac e2e||

